img/benefit2-icons/img1.svg

<svg width="40" height="40" viewBox="0 0 40 40" fill="none" xmlns="http://www.w3.org/2000/svg">
<g clip-path="url(#clip0_257_14774)">
<path d="M31.6756 31.8902C31.3353 31.6301 30.849 31.6953 30.589 32.0354C30.329 32.3755 30.3941 32.862 30.7342 33.122L32.0588 34.1344C32.1989 34.2414 32.3645 34.2937 32.5292 34.2937C32.7412 34.2937 32.9517 34.207 33.104 34.0389L35.6359 31.2433C35.9233 30.9259 35.8991 30.4357 35.5817 30.1484C35.2645 29.861 34.7742 29.8853 34.4869 30.2026L32.4337 32.4697L31.6756 31.8902Z" fill="#0383FD"/>
<path d="M39.9057 27.7525C39.8968 27.3573 39.592 27.0322 39.1983 26.9978C37.3543 26.8366 35.0852 25.5979 33.4172 23.8423C33.2708 23.6884 33.0678 23.6012 32.8554 23.6011C32.8553 23.6011 32.8553 23.6011 32.8552 23.6011C32.6429 23.6011 32.4399 23.6881 32.2936 23.8419C31.5449 24.6289 30.6758 25.3116 29.779 25.8403C28.2053 24.0835 26.2684 22.7892 23.9982 21.9745C23.9784 21.9665 23.9584 21.9594 23.938 21.953C23.7612 21.8904 23.5823 21.8306 23.4014 21.7737C25.3213 19.859 26.6127 17.3427 26.6127 15.0854V13.8676C27.5202 13.4724 28.1567 12.5666 28.1567 11.5145C28.1567 10.4217 27.4688 9.48692 26.5035 9.11911C26.1051 5.2511 23.38 1.99955 19.6366 0.92381C19.526 0.396948 19.0579 0 18.4987 0H15.6898C15.1505 0 14.6971 0.369586 14.5663 0.868542C12.7249 1.35959 11.043 2.40773 9.78202 3.86499C8.50211 5.34411 7.7062 7.19127 7.50405 9.1195C6.5383 9.48754 5.85021 10.422 5.85021 11.5146C5.85021 12.5671 6.48761 13.4731 7.39638 13.8681V15.0855C7.39638 17.3407 8.68799 19.8579 10.6078 21.7739C10.4322 21.8291 10.2583 21.8869 10.0865 21.9475C10.0527 21.9571 10.0198 21.969 9.98782 21.983C7.44692 22.8996 5.3256 24.4169 3.66432 26.5121C2.06661 28.5273 0.930796 31.0159 0.288516 33.9094C0.0599281 34.9434 -0.111998 36.2428 0.593068 37.1208C1.28178 37.9783 2.51409 38.0882 3.51084 38.0882H8.58141C9.00952 38.0882 9.35655 37.7411 9.35655 37.3131C9.35655 36.885 9.00952 36.5379 8.58141 36.5379H3.51084C2.58355 36.5379 2.00855 36.4074 1.80182 36.15C1.58284 35.8773 1.583 35.236 1.80205 34.2446C2.60765 30.616 4.57743 26.1756 9.32337 23.9337C9.17742 26.5524 10.5963 28.264 11.4982 29.3504C11.6362 29.5167 11.8375 29.6178 12.0533 29.6293C12.2691 29.6413 12.48 29.5618 12.635 29.4111L17.0035 25.1627L21.3741 29.4112C21.5192 29.5521 21.7131 29.6305 21.9144 29.6305C21.9283 29.6305 21.9422 29.6301 21.9562 29.6293C22.1721 29.6177 22.3734 29.5164 22.5113 29.3498C23.412 28.2625 24.8288 26.5499 24.6841 23.9367C26.061 24.5899 27.2775 25.4634 28.3236 26.5515C27.699 26.7933 27.0847 26.9478 26.512 26.9978C26.1185 27.0322 25.8138 27.357 25.8046 27.752C25.7397 30.5233 26.2016 32.5088 27.4513 34.8328C27.4618 34.8525 27.8841 35.6095 28.5422 36.5381H15.599C15.1709 36.5381 14.8238 36.8852 14.8238 37.3132C14.8238 37.7412 15.1709 38.0884 15.599 38.0884H29.7732C30.7077 39.1211 31.8099 40.0002 32.8551 40.0002C35.3768 40.0002 38.2312 34.8845 38.2586 34.8333C39.5063 32.509 39.968 30.5238 39.9057 27.7525ZM24.9213 8.95176H20.6536C19.8473 6.84548 19.6947 5.10863 19.6674 2.55896C22.4632 3.54781 24.4957 6.01476 24.9213 8.95176ZM16.077 1.55028H18.1114C18.1163 4.55068 18.1924 6.58278 19.0046 8.95176H15.1854C15.9962 6.58271 16.0722 4.55037 16.077 1.55028ZM14.5218 2.49781C14.4963 5.08103 14.3481 6.82858 13.5368 8.95184H9.08734C9.52948 5.97663 11.6682 3.44278 14.5218 2.49781ZM8.41522 10.502H13.6007C13.6464 10.5391 13.6906 10.5438 13.7276 10.502H25.5938C26.1522 10.502 26.6064 10.9562 26.6064 11.5146C26.6064 12.0742 26.1522 12.5294 25.5938 12.5294H8.41522C7.85573 12.5294 7.40049 12.0742 7.40049 11.5146C7.40049 10.9563 7.85565 10.502 8.41522 10.502ZM8.94666 15.0855V14.0796H25.0623V15.0855C25.0623 18.0408 22.1993 21.6958 18.9353 22.9074C17.5071 23.4382 16.4932 23.4377 15.0616 22.9057C11.8041 21.6891 8.94666 18.0348 8.94666 15.0855ZM12.1636 27.7069C11.3614 26.6596 10.5889 25.2845 10.9602 23.2884C11.3021 23.178 11.6554 23.0773 12.0217 22.9883C12.8034 23.5617 13.6464 24.0321 14.5204 24.3585C14.8017 24.463 15.0723 24.5491 15.3371 24.6207L12.1636 27.7069ZM21.8446 27.7065L18.6692 24.6198C18.9306 24.5489 19.1977 24.4638 19.4751 24.3607C20.3534 24.0347 21.2005 23.5634 21.9858 22.9881C22.3476 23.0762 22.7015 23.1759 23.0467 23.2877C23.4189 25.281 22.6467 26.6575 21.8446 27.7065ZM36.8924 34.1005C35.9757 35.8113 33.829 38.4497 32.8551 38.4497C31.8812 38.4497 29.7345 35.8113 28.8173 34.0994C27.7929 32.1947 27.3725 30.6064 27.3498 28.4438C28.186 28.2846 29.0565 27.9726 29.9126 27.5368C29.9427 27.5237 29.972 27.5083 30.0007 27.4911C31.0003 26.9715 31.978 26.2839 32.8548 25.4666C34.5057 27.0068 36.5155 28.093 38.3598 28.4439C38.3354 30.6068 37.9151 32.1954 36.8924 34.1005Z" fill="#0383FD"/>
<path d="M12.0901 36.5379C11.662 36.5379 11.3149 36.885 11.3149 37.3131C11.3149 37.7411 11.662 38.0882 12.0901 38.0882H12.0945C12.5226 38.0882 12.8674 37.7411 12.8674 37.3131C12.8674 36.885 12.5182 36.5379 12.0901 36.5379Z" fill="#0383FD"/>
</g>
<defs>
<clipPath id="clip0_257_14774">
<rect width="40" height="40" fill="white"/>
</clipPath>
</defs>
</svg>

<svg width="40" height="40" fill="none" xmlns="http://www.w3.org/2000/svg"><g clip-path="url(#clip0_257_14774)" fill="#0383FD"><path d="M31.676 31.89a.775.775 0 10-.942 1.232l1.325 1.012a.773.773 0 001.045-.095l2.532-2.796a.775.775 0 10-1.15-1.04l-2.052 2.267-.758-.58z"/><path d="M39.906 27.753a.775.775 0 00-.708-.755c-1.844-.161-4.113-1.4-5.78-3.156a.775.775 0 00-1.124 0 11.737 11.737 0 01-2.515 1.998c-1.574-1.756-3.51-3.05-5.78-3.866a15.913 15.913 0 00-.597-.2c1.92-1.915 3.21-4.431 3.21-6.689v-1.217a2.569 2.569 0 001.545-2.354 2.567 2.567 0 00-1.654-2.395A9.562 9.562 0 0019.637.924 1.165 1.165 0 0018.499 0h-2.81c-.539 0-.992.37-1.123.869A9.584 9.584 0 007.504 9.12a2.567 2.567 0 00-1.654 2.395 2.57 2.57 0 001.546 2.353v1.217c0 2.256 1.292 4.773 3.212 6.689a15.913 15.913 0 00-.62.209c-2.541.917-4.662 2.434-6.324 4.53C2.067 28.526.931 31.015.29 33.908c-.23 1.034-.401 2.334.304 3.212.689.857 1.921.967 2.918.967h5.07a.775.775 0 000-1.55h-5.07c-.927 0-1.502-.13-1.71-.388-.218-.273-.218-.914.001-1.905.806-3.629 2.775-8.07 7.521-10.311-.146 2.618 1.273 4.33 2.175 5.416a.775.775 0 001.137.061l4.368-4.248 4.371 4.248a.776.776 0 001.137-.061c.901-1.088 2.318-2.8 2.173-5.413a12.358 12.358 0 013.64 2.614 6.698 6.698 0 01-1.812.447.775.775 0 00-.707.754c-.065 2.771.397 4.757 1.646 7.08.01.02.433.777 1.091 1.706H15.6a.775.775 0 000 1.55h14.174C30.708 39.121 31.81 40 32.855 40c2.522 0 5.376-5.115 5.404-5.167 1.247-2.324 1.709-4.31 1.647-7.08zM24.92 8.952h-4.267c-.807-2.107-.96-3.843-.987-6.393a8.014 8.014 0 015.254 6.393zM16.077 1.55h2.034c.005 3 .081 5.033.894 7.402h-3.82c.811-2.37.887-4.402.892-7.402zm-1.555.948c-.026 2.583-.174 4.33-.985 6.454h-4.45c.442-2.975 2.581-5.51 5.435-6.454zm-6.107 8.004h5.186c.045.037.09.042.127 0h11.866a1.014 1.014 0 010 2.027H8.415c-.56 0-1.015-.455-1.015-1.014 0-.559.456-1.013 1.015-1.013zm.532 4.583V14.08h16.115v1.005c0 2.956-2.863 6.61-6.127 7.822-1.428.531-2.442.53-3.873-.001-3.258-1.217-6.115-4.871-6.115-7.82zm3.217 12.622c-.803-1.047-1.575-2.422-1.204-4.419.342-.11.695-.21 1.062-.3a10.421 10.421 0 002.498 1.37c.282.105.552.191.817.263l-3.173 3.086zm9.68 0L18.67 24.62c.262-.071.529-.156.806-.26a10.412 10.412 0 002.51-1.372c.363.088.716.188 1.062.3.372 1.993-.4 3.37-1.202 4.418zM36.893 34.1c-.916 1.711-3.063 4.35-4.037 4.35-.974 0-3.12-2.639-4.038-4.35-1.024-1.905-1.445-3.494-1.467-5.656.836-.16 1.706-.471 2.563-.907a13.06 13.06 0 002.942-2.07c1.65 1.54 3.66 2.626 5.505 2.977-.025 2.163-.445 3.751-1.468 5.656z"/><path d="M12.09 36.538a.775.775 0 000 1.55h.005a.773.773 0 00.772-.775.777.777 0 00-.777-.775z"/></g><defs><clipPath id="clip0_257_14774"><path fill="#fff" d="M0 0h40v40H0z"/></clipPath></defs></svg>
